Yaru++/emotes/16/face-wink.svg

<svg height="16" width="16" xmlns="http://www.w3.org/2000/svg"><g stroke-width="1.142857"><path d="m8 0a8 8 0 1 0 0 16 8 8 0 0 0 0-16zm-2.2857143 4.5714286c.6388572 0 1.1782857.5405714 1.1782857 1.1782857v1.1074286c0 .6377142-.5394285 1.1428571-1.1771428 1.1428571-.64 0-1.1428572-.5051429-1.1428572-1.1428571v-1.1074286c-.0011428-.6377143.5017143-1.1782857 1.1417143-1.1782857zm3.9291433 1.1428571h1.035428c.596572 0 1.107429.2468572 1.107429.5714286s-.510857.5714286-1.108572.5714286h-1.034285c-.597715 0-1.0720004-.2468572-1.0720004-.5714286s.4742854-.5714286 1.0720004-.5714286zm-7.3577147 3.5005714c.8182857 1.2262859 2.5542857 2.2137139 5.7142857 2.2137139 2.802286 0 4.812571-.857142 5.714286-2.2148567v.5714286c0 .7782861-.957715 2.7508571-5.714286 2.7508571-4.4342857 0-5.7142857-2.141714-5.7142857-2.7497143z" fill="#fdc92b"/><path d="m8 0a8 8 0 0 0 -7.9866071 8.3482143 8 8 0 0 1 7.9866071-7.77678573 8 8 0 0 1 7.986607 7.65178573 8 8 0 0 0 -7.986607-8.2232143zm.7299107 6.5714286c-.091944.08451-.1584821.1778124-.1584821.2857143 0 .3245714.4737144.5714285 1.0714284.5714285h1.035714c.597715 0 1.107143-.2468571 1.107143-.5714285 0-.1080699-.07207-.2011195-.169643-.2857143-.195566.169473-.538801.2857143-.9375.2857143h-1.035714c-.399008 0-.72832-.1160171-.9129463-.2857143zm-4.15625.2857143v.5714285c0 .6377143.5028571 1.1428572 1.1428571 1.1428572.6377143 0 1.1763393-.5051429 1.1763393-1.1428572v-.5714285c0 .6377142-.538625 1.1428571-1.1763393 1.1428571-.64 0-1.1428571-.5051429-1.1428571-1.1428571zm-2.2879464 2.9285714v.5714287c0 .608 1.28 2.75 5.7142857 2.75 4.756571 0 5.714286-1.971714 5.714286-2.75v-.5714287c0 .7782857-.957715 2.7499997-5.714286 2.7499997-4.4342857 0-5.7142857-2.142-5.7142857-2.7499997z" fill="#fffffd" opacity=".3"/><path d="m5.7142857 4c-.64 0-1.1417679.5408571-1.140625 1.1785714v.5714286c-.00114-.6377143.500625-1.1785714 1.140625-1.1785714.6388572 0 1.1785714.5408571 1.1785714 1.1785714v-.5714286c0-.6377143-.5397142-1.1785714-1.1785714-1.1785714zm3.9285713 1.1428571c-.597714 0-1.0714284.2468572-1.0714284.5714286 0 .1079018.066538.2012048.1584821.2857143.1846263-.1696973.5139383-.2857143.9129463-.2857143h1.035714c.397936 0 .742019.1162413.9375.2857143.09762-.084595.169643-.1776445.169643-.2857143 0-.3245714-.510571-.5714286-1.107143-.5714286zm6.34375 2.5089286a8 8 0 0 1 -7.986607 7.7767853 8 8 0 0 1 -7.9866071-7.6517853 8 8 0 0 0 7.9866071 8.2232143 8 8 0 0 0 7.986607-8.3482143zm-13.7008927.9910714v.5714286c.8182857 1.2262853 2.5542857 2.2142853 5.7142857 2.2142853 2.802286 0 4.812571-.856571 5.714286-2.2142853v-.5714286c-.901715 1.3577139-2.912 2.2142859-5.714286 2.2142859-3.16 0-4.896-.9880001-5.7142857-2.2142859z" opacity=".2"/></g></svg>

<?xml version="1.0" encoding="UTF-8" standalone="no"?>
<svg
   xmlns:dc="http://purl.org/dc/elements/1.1/"
   xmlns:cc="http://creativecommons.org/ns#"
   xmlns:rdf="http://www.w3.org/1999/02/22-rdf-syntax-ns#"
   xmlns:svg="http://www.w3.org/2000/svg"
   xmlns="http://www.w3.org/2000/svg"
   xmlns:sodipodi="http://sodipodi.sourceforge.net/DTD/sodipodi-0.dtd"
   xmlns:inkscape="http://www.inkscape.org/namespaces/inkscape"
   width="16"
   height="16"
   version="1.1"
   id="svg4"
   sodipodi:docname="face-wink.svg"
   inkscape:version="0.92.4 (5da689c313, 2019-01-14)">
  <metadata
     id="metadata10">
    <rdf:RDF>
      <cc:Work
         rdf:about="">
        <dc:format>image/svg+xml</dc:format>
        <dc:type
           rdf:resource="http://purl.org/dc/dcmitype/StillImage" />
      </cc:Work>
    </rdf:RDF>
  </metadata>
  <defs
     id="defs8" />
  <sodipodi:namedview
     pagecolor="#ffffff"
     bordercolor="#666666"
     borderopacity="1"
     objecttolerance="10"
     gridtolerance="10"
     guidetolerance="10"
     inkscape:pageopacity="0"
     inkscape:pageshadow="2"
     inkscape:window-width="1920"
     inkscape:window-height="1016"
     id="namedview6"
     showgrid="false"
     inkscape:zoom="14.75"
     inkscape:cx="-4.8813559"
     inkscape:cy="8"
     inkscape:window-x="0"
     inkscape:window-y="27"
     inkscape:window-maximized="1"
     inkscape:current-layer="svg4" />
  <path
     d="M 8,0 A 8,8 0 1 0 8,16 8,8 0 0 0 8,0 Z M 5.7142857,4.5714286 c 0.6388572,0 1.1782857,0.5405714 1.1782857,1.1782857 V 6.8571429 C 6.8925714,7.4948571 6.3531429,8 5.7154286,8 5.0754286,8 4.5725714,7.4948571 4.5725714,6.8571429 V 5.7497143 C 4.5714286,5.112 5.0742857,4.5714286 5.7142857,4.5714286 Z M 9.643429,5.7142857 h 1.035428 c 0.596572,0 1.107429,0.2468572 1.107429,0.5714286 0,0.3245714 -0.510857,0.5714286 -1.108572,0.5714286 H 9.643429 c -0.597715,0 -1.0720004,-0.2468572 -1.0720004,-0.5714286 0,-0.3245714 0.4742854,-0.5714286 1.0720004,-0.5714286 z M 2.2857143,9.2148571 C 3.104,10.441143 4.84,11.428571 8,11.428571 c 2.802286,0 4.812571,-0.857142 5.714286,-2.2148567 V 9.7851429 C 13.714286,10.563429 12.756571,12.536 8,12.536 3.5657143,12.536 2.2857143,10.394286 2.2857143,9.7862857 Z"
     id="path2"
     style="fill:#fdc92b;fill-opacity:1;stroke-width:1.14285719"
     inkscape:connector-curvature="0" />
  <path
     style="opacity:0.3;fill:#fffffd;fill-opacity:1;stroke-width:1.14285719"
     d="M 8,0 A 8,8 0 0 0 0.0133929,8.3482143 8,8 0 0 1 8,0.57142857 8,8 0 0 1 15.986607,8.2232143 8,8 0 0 0 8,0 Z m 0.7299107,6.5714286 c -0.091944,0.08451 -0.1584821,0.1778124 -0.1584821,0.2857143 0,0.3245714 0.4737144,0.5714285 1.0714284,0.5714285 h 1.035714 c 0.597715,0 1.107143,-0.2468571 1.107143,-0.5714285 0,-0.1080699 -0.07207,-0.2011195 -0.169643,-0.2857143 -0.195566,0.169473 -0.538801,0.2857143 -0.9375,0.2857143 H 9.642857 c -0.399008,0 -0.72832,-0.1160171 -0.9129463,-0.2857143 z m -4.15625,0.2857143 v 0.5714285 c 0,0.6377143 0.5028571,1.1428572 1.1428571,1.1428572 0.6377143,0 1.1763393,-0.5051429 1.1763393,-1.1428572 V 6.8571429 C 6.8928571,7.4948571 6.3542321,8 5.7165178,8 5.0765178,8 4.5736607,7.4948571 4.5736607,6.8571429 Z M 2.2857143,9.7857143 v 0.5714287 c 0,0.608 1.28,2.75 5.7142857,2.75 4.756571,0 5.714286,-1.971714 5.714286,-2.75 V 9.7857143 C 13.714286,10.564 12.756571,12.535714 8,12.535714 c -4.4342857,0 -5.7142857,-2.142 -5.7142857,-2.7499997 z"
     id="path817"
     inkscape:connector-curvature="0" />
  <path
     style="opacity:0.2;fill:#000000;fill-opacity:1;stroke-width:1.14285719"
     d="m 5.7142857,4 c -0.64,0 -1.1417679,0.5408571 -1.140625,1.1785714 V 5.75 c -0.00114,-0.6377143 0.500625,-1.1785714 1.140625,-1.1785714 0.6388572,0 1.1785714,0.5408571 1.1785714,1.1785714 V 5.1785714 C 6.8928571,4.5408571 6.3531429,4 5.7142857,4 Z M 9.642857,5.1428571 c -0.597714,0 -1.0714284,0.2468572 -1.0714284,0.5714286 0,0.1079018 0.066538,0.2012048 0.1584821,0.2857143 C 8.914537,5.8303027 9.243849,5.7142857 9.642857,5.7142857 h 1.035714 c 0.397936,0 0.742019,0.1162413 0.9375,0.2857143 0.09762,-0.084595 0.169643,-0.1776445 0.169643,-0.2857143 0,-0.3245714 -0.510571,-0.5714286 -1.107143,-0.5714286 z m 6.34375,2.5089286 A 8,8 0 0 1 8,15.428571 8,8 0 0 1 0.0133929,7.7767857 8,8 0 0 0 8,16 8,8 0 0 0 15.986607,7.6517857 Z M 2.2857143,8.6428571 V 9.2142857 C 3.104,10.440571 4.84,11.428571 8,11.428571 c 2.802286,0 4.812571,-0.856571 5.714286,-2.2142853 V 8.6428571 C 12.812571,10.000571 10.802286,10.857143 8,10.857143 c -3.16,0 -4.896,-0.9880001 -5.7142857,-2.2142859 z"
     id="path822"
     inkscape:connector-curvature="0" />
</svg>
